src/actions/24/draw-freehand.svg

<svg xmlns="http://www.w3.org/2000/svg" viewBox="0 0 24 24">
  <defs id="defs3051">
    <style type="text/css" id="current-color-scheme">
      .ColorScheme-Text {
        color:#2e3440;
      }
      </style>
  </defs>
 <path style="fill:currentColor;fill-opacity:1;stroke:none" 
     d="M 13.001953 4 L 5.6582031 11.3125 L 4.2519531 12.75 L 4.0019531 13 L 4.0019531 17 L 5.0019531 17 L 7.0019531 17 L 8.0019531 17 L 8.2519531 16.75 L 8.6269531 16.40625 L 9.3144531 15.6875 L 9.6894531 15.34375 L 16 9 L 17 8 L 13.001953 4 z M 12.408203 6 L 15 8.59375 L 10.720703 12.84375 L 8.1582031 10.25 L 12.408203 6 z M 7.4394531 10.96875 L 10.033203 13.5625 L 9.3144531 14.28125 L 6.7207031 11.6875 L 7.0019531 11.40625 L 7.4394531 10.96875 z M 6.0332031 12.375 L 8.6269531 14.96875 L 7.9082031 15.6875 L 5.3144531 13.09375 L 6.0332031 12.375 z M 17.498047 15 C 17.236387 15.0001 16.543567 15.046 15.435547 15.5625 C 15.089167 15.7241 14.80184 15.907 14.40625 16.125 C 14.19507 16.2414 13.43802 16.6193 13.15625 16.75 C 12.33058 17.1332 12.0562 17.2299 11.34375 17.5 C 10.65424 17.7615 9.9106 17.9987 9.40625 18.1875 C 7.28335 18.9823 4 19 4 19 L 4 20 C 4 20 7.32741 20.032 9.75 19.125 C 10.07135 19.0047 10.63148 18.8074 11.15625 18.625 C 11.96327 18.33064 12.83545 17.96826 13.5625 17.65625 C 13.86715 17.51485 14.573417 17.1652 14.873047 17 C 15.313257 16.7574 15.606857 16.57825 15.841797 16.46875 C 16.355167 16.16635 16.925197 15.9864 17.498047 16 C 17.453247 16.0002 17.671837 16.001 17.873047 16.09375 C 18.074257 16.17775 18.297827 16.32735 18.466797 16.46875 C 18.794117 16.80065 18.931417 17.0539 18.998047 17.5 C 18.972347 18.182 18.737407 18.39575 18.248047 18.78125 C 17.924207 18.99579 17.46827 19.034846 17 19.003906 L 17 19.972656 C 17.78372 19.974656 18.411047 19.81831 18.779297 19.625 C 19.616007 19.1478 20.027267 18.28855 19.998047 17.46875 C 19.993047 17.18085 19.920827 16.9437 19.779297 16.625 C 19.637717 16.3064 19.435267 15.9489 19.123047 15.6875 C 18.641187 15.2643 18.399387 15.0781 17.498047 15 z "
     class="ColorScheme-Text"
     />
</svg>

<svg viewBox="0 0 24 24" xmlns="http://www.w3.org/2000/svg">
 <defs>
  <style type="text/css">.ColorScheme-Text {
        color:#2e3440;
      }</style>
 </defs>
 <path class="ColorScheme-Text" d="m13.002 4-7.3437 7.3125-1.4062 1.4375-0.25 0.25v4h1 2 1l0.25-0.25 0.375-0.34375 0.6875-0.71875 0.375-0.34375 6.3105-6.3438 1-1-3.998-4zm-0.59375 2 2.5918 2.5938-4.2793 4.25-2.5625-2.5938 4.25-4.25zm-4.9687 4.9688 2.5937 2.5938-0.71875 0.71875-2.5938-2.5938 0.71875-0.71875zm-1.4062 1.4062 2.5938 2.5938-0.71875 0.71875-2.5938-2.5938 0.71875-0.71875zm11.465 2.625c-0.26166 1e-4 -0.95448 0.046-2.0625 0.5625-0.34638 0.1616-0.63371 0.3445-1.0293 0.5625-0.21118 0.1164-0.96823 0.4943-1.25 0.625-0.82567 0.3832-1.1 0.4799-1.8125 0.75-0.68951 0.2615-1.4332 0.4987-1.9375 0.6875-2.1229 0.7948-5.4062 0.8125-5.4062 0.8125v1s3.3274 0.032 5.75-0.875c0.32135-0.1203 0.88148-0.3176 1.4062-0.5 0.80702-0.29436 1.6792-0.65674 2.4062-0.96875 0.30465-0.1414 1.0109-0.49105 1.3105-0.65625 0.44021-0.2426 0.73381-0.42175 0.96875-0.53125 0.51337-0.3024 1.0834-0.48235 1.6562-0.46875-0.0448 2e-4 0.17379 1e-3 0.375 0.09375 0.20121 0.084 0.42478 0.2336 0.59375 0.375 0.32732 0.3319 0.46462 0.58515 0.53125 1.0312-0.0257 0.682-0.26064 0.89575-0.75 1.2812-0.32384 0.21454-0.77978 0.2536-1.248 0.22266v0.96875c0.78372 2e-3 1.411-0.15435 1.7793-0.34766 0.83671-0.4772 1.248-1.3364 1.2188-2.1562-5e-3 -0.2879-0.07722-0.52505-0.21875-0.84375-0.14158-0.3186-0.34403-0.6761-0.65625-0.9375-0.48186-0.4232-0.72366-0.6094-1.625-0.6875z" fill="currentColor"/>
</svg>
